X: 1
T: Green Meadow, The
M: 4/4
L: 1/8
R: hornpipe
K: Amin
|:e2 ef edcB|A^GAc B^G (3EEE|e2 ef edcB|ABcd (3eee e2|
e2 ef edcB|A^GAc B^G (3EEE|dfed cedc|ABcd (3eee e2:|
|:cGEG cedc|BGDG BdcB|A^GAB cBcd|(3efe (3dcB A2 AB|
cGEG cedc|BGDG BdcB|AcGc FcEc|Bc (3dcB (3ccc c2:|
